src/assets/icons-source/telegram.svg

<svg width="40" height="40" viewBox="0 0 40 40" xmlns="http://www.w3.org/2000/svg">
<path d="M0.691676 18.6595L10.4733 23.5345C10.8517 23.7212 11.2983 23.7078 11.66 23.4962L20.3667 18.4345L15.0967 23.1045C14.8283 23.3428 14.675 23.6828 14.675 24.0412V35.4162C14.675 36.6162 16.2067 37.1212 16.925 36.1678L21.1533 30.5462L31.61 36.5012C32.3433 36.9228 33.2833 36.4995 33.4533 35.6612L39.975 3.16117C40.17 2.1845 39.1983 1.38784 38.295 1.75117L0.795009 16.3762C-0.211658 16.7695 -0.276658 18.1778 0.691676 18.6595ZM37.075 4.91117L31.3433 33.4728L21.435 27.8295C20.895 27.5212 20.2 27.6578 19.8167 28.1645L17.175 31.6762V24.6028L31.4267 11.9762C32.555 10.9778 31.2583 9.20284 29.97 9.9595L10.9867 20.9962L4.33334 17.6812L37.075 4.91117Z" />
</svg>

<svg fill="none" xmlns="http://www.w3.org/2000/svg">
    <g clip-path="url(#a)">
        <path d="m.692 18.66 9.781 4.875c.379.187.825.173 1.187-.038l8.707-5.062-5.27 4.67a1.252 1.252 0 0 0-.422.937v11.375c0 1.2 1.532 1.705 2.25.751l4.228-5.621 10.457 5.955a1.25 1.25 0 0 0 1.843-.84l6.522-32.5c.195-.977-.777-1.774-1.68-1.41L.795 16.377c-1.007.393-1.072 1.801-.103 2.283zM37.075 4.912l-5.732 28.561-9.908-5.643a1.253 1.253 0 0 0-1.618.335l-2.642 3.512v-7.074l14.252-12.626c1.128-.999-.169-2.774-1.457-2.017L10.987 20.997l-6.654-3.315 32.742-12.77z" fill="#C4C4C4"/>
    </g>
    <defs>
        <clipPath id="a">
            <path fill="#fff" d="M0 0h40v40H0z"/>
        </clipPath>
    </defs>
</svg>
